xbox.svg

<svg viewBox="0 0 24 24" xmlns="http://www.w3.org/2000/svg"><path d="M12.0107 9.64029C12.0107 9.64029 12.0349 9.64029 12.047 9.6645C15.6357 12.3878 21.7721 19.1385 19.8991 21.0357C15.3781 24.9881 8.6311 24.9881 4.11011 21.0357C2.22499 19.1264 8.37357 12.3787 11.9774 9.6645C12.0016 9.6645 12.0137 9.64029 12.0258 9.64029M18.2652 1.76394C14.4272-0.587981 9.59419-0.587981 5.75619 1.76394C5.74482 1.7686 5.73584 1.77767 5.73127 1.78908C5.72671 1.80048 5.72697 1.81325 5.73198 1.82446C5.73198 1.84867 5.76829 1.84867 5.78947 1.84867C8.10729 1.34335 11.6506 3.3616 11.9744 3.55223C11.9881 3.56456 12.009 3.56456 12.0228 3.55223C12.3586 3.3495 15.8777 1.34335 18.2077 1.84867C18.2184 1.8536 18.2308 1.85379 18.2417 1.84919C18.2526 1.84459 18.2611 1.83562 18.2652 1.82446C18.2742 1.81699 18.2794 1.8059 18.2794 1.7942C18.2794 1.78251 18.2742 1.77142 18.2652 1.76394M3.61689 3.45843C3.59867 3.46747 3.58226 3.47978 3.56848 3.49474C-0.702781 7.73342-1.1701 14.4817 2.47614 19.2686C2.47614 19.2928 2.51245 19.2928 2.53666 19.2928C2.56086 19.2928 2.56086 19.2565 2.53666 19.2323C1.6289 16.4092 6.29479 9.54952 8.72155 6.68401C8.7266 6.67244 8.7266 6.65928 8.72155 6.6477C8.72155 6.6477 8.72155 6.61139 8.69734 6.61139C5.06932 2.96521 3.82265 3.3495 3.61689 3.45843M15.2998 6.60232C15.2998 6.60232 15.2756 6.62652 15.2756 6.63863C15.2756 6.65073 15.2756 6.66283 15.2756 6.67494C17.6781 9.54649 22.3622 16.4001 21.4605 19.2232C21.4605 19.2474 21.4605 19.2717 21.4605 19.2838C21.4717 19.2888 21.4845 19.289 21.4959 19.2845C21.5073 19.2799 21.5163 19.2709 21.521 19.2595C25.1632 14.4743 24.7068 7.73334 20.4529 3.48264L20.4044 3.44633C20.1987 3.3495 18.952 2.96521 15.2998 6.60232" fill="#107c10"/></svg>

<svg viewBox="0 0 24 24" xmlns="http://www.w3.org/2000/svg"><path d="M12.01 9.64s.025 0 .037.024c3.589 2.724 9.725 9.475 7.852 11.372a11.994 11.994 0 0 1-15.789 0c-1.885-1.91 4.264-8.657 7.867-11.372.025 0 .037-.024.049-.024m6.24-7.876a11.97 11.97 0 0 0-12.51 0 .045.045 0 0 0-.024.06c0 .025.036.025.057.025 2.318-.506 5.862 1.513 6.185 1.703a.036.036 0 0 0 .049 0c.336-.203 3.855-2.209 6.185-1.703a.042.042 0 0 0 .057-.025.04.04 0 0 0 0-.06M3.617 3.458a.166.166 0 0 0-.049.037 11.988 11.988 0 0 0-1.092 15.774c0 .024.036.024.06.024.025 0 .025-.037 0-.06C1.63 16.408 6.296 9.55 8.723 6.683a.045.045 0 0 0 0-.036s0-.037-.025-.037C5.07 2.965 3.823 3.35 3.617 3.458M15.3 6.602s-.024.025-.024.037v.036c2.402 2.871 7.086 9.725 6.184 12.548v.06a.046.046 0 0 0 .06-.024 12.016 12.016 0 0 0-1.067-15.776l-.049-.037c-.205-.097-1.452-.48-5.104 3.156" fill="#107c10"/></svg>
